alecto/img/svg/atom.svg

<svg xmlns="http://www.w3.org/2000/svg" width="47" height="53"><path d="M46.189 39.503c-1.367 2.348-4.18 3.551-8.063 3.551-1.536 0-3.25-.2-5.097-.579-2.126 6.726-5.531 10.535-9.529 10.535-3.996 0-7.401-3.809-9.527-10.532-1.897.396-3.639.584-5.193.584-3.846 0-6.588-1.186-7.967-3.557-1.926-3.319-.39-7.986 4.195-13.006-4.583-5.02-6.121-9.686-4.196-13.004 1.906-3.277 6.642-4.31 13.158-2.969C16.098 3.799 19.502-.011 23.5-.011c3.998 0 7.403 3.81 9.529 10.537 2.057-.429 3.924-.624 5.578-.589 3.643.076 6.251 1.269 7.58 3.557 1.926 3.317.39 7.985-4.195 13.005 4.584 5.018 6.121 9.685 4.197 13.004zm-28.001-.598c1.649 6.653 4.134 9.133 5.312 9.133 1.036 0 3.08-1.916 4.68-6.896a55.467 55.467 0 01-5.762-2.329 62.923 62.923 0 01-4.676-2.435l-.071-.041c.161.868.313 1.744.517 2.568zM5.185 37.034c.472.813 2.928 1.554 7.616.61-.38-1.967-.693-3.991-.861-6.12a63.825 63.825 0 01-.186-4.606c-.52.453-1.025.907-1.497 1.36-4.749 4.565-5.631 7.791-5.072 8.756zm9.873-21.141c-6.173-1.714-9.33-.866-9.876.073-.485.837.128 3.398 3.434 7.062a55.935 55.935 0 014.379-3.394 64.262 64.262 0 014.606-2.93 40.76 40.76 0 00-2.543-.811zm13.755-1.8c-1.649-6.654-4.134-9.134-5.313-9.134-1.036 0-3.08 1.918-4.68 6.898a55.07 55.07 0 015.762 2.329 63.687 63.687 0 014.677 2.432l.07.043c-.16-.868-.313-1.745-.516-2.568zm1.27 8.924a60.027 60.027 0 00-3.358-2.103 60.326 60.326 0 00-3.225-1.705 60.294 60.294 0 00-3.224 1.705 59.138 59.138 0 00-3.359 2.104c-.067 1.151-.134 2.305-.134 3.481 0 1.177.067 2.332.134 3.482a59.068 59.068 0 003.359 2.101c1.041.6 2.126 1.165 3.224 1.707a56.918 56.918 0 003.225-1.706 60.004 60.004 0 003.358-2.102c.068-1.151.135-2.305.135-3.482 0-1.176-.067-2.33-.135-3.482zm-.681 13.277c.862.303 1.712.581 2.54.811 6.17 1.712 9.329.862 9.877-.071.485-.84-.13-3.401-3.433-7.064a56.64 56.64 0 01-4.38 3.395 64.083 64.083 0 01-4.604 2.929zm12.413-20.33c-.475-.813-2.929-1.555-7.616-.611.381 1.967.694 3.993.861 6.121.118 1.501.177 3.05.187 4.605.52-.452 1.025-.906 1.497-1.36 4.749-4.563 5.63-7.791 5.071-8.755zM23.5 29.813c-1.854 0-3.359-1.485-3.359-3.314 0-1.831 1.505-3.315 3.359-3.315s3.359 1.484 3.359 3.315c0 1.829-1.505 3.314-3.359 3.314z"/></svg>

<svg 
 xmlns="http://www.w3.org/2000/svg"
 xmlns:xlink="http://www.w3.org/1999/xlink"
 width="47px" height="53px">
<path
 d="M46.189,39.503 C44.822,41.851 42.009,43.054 38.126,43.054 C36.590,43.054 34.876,42.854 33.029,42.475 C30.903,49.201 27.498,53.010 23.500,53.010 C19.504,53.010 16.099,49.201 13.973,42.478 C12.076,42.874 10.334,43.062 8.780,43.062 C4.934,43.062 2.192,41.876 0.813,39.505 C-1.113,36.186 0.423,31.519 5.008,26.499 C0.425,21.479 -1.113,16.813 0.812,13.495 C2.718,10.218 7.454,9.185 13.970,10.526 C16.098,3.799 19.502,-0.011 23.500,-0.011 C27.498,-0.011 30.903,3.799 33.029,10.526 C35.086,10.097 36.953,9.902 38.607,9.937 C42.250,10.013 44.858,11.206 46.187,13.494 C48.113,16.811 46.577,21.479 41.992,26.499 C46.576,31.517 48.113,36.184 46.189,39.503 ZM18.188,38.905 C19.837,45.558 22.322,48.038 23.500,48.038 C24.536,48.038 26.580,46.122 28.180,41.142 C26.307,40.508 24.379,39.733 22.418,38.813 C20.817,38.062 19.243,37.243 17.742,36.378 C17.719,36.365 17.694,36.350 17.671,36.337 C17.832,37.205 17.984,38.081 18.188,38.905 ZM5.185,37.034 C5.657,37.847 8.113,38.588 12.801,37.644 C12.421,35.677 12.108,33.653 11.940,31.524 C11.822,30.022 11.763,28.472 11.754,26.918 C11.234,27.371 10.729,27.825 10.257,28.278 C5.508,32.843 4.626,36.069 5.185,37.034 ZM15.058,15.893 C8.885,14.179 5.728,15.027 5.182,15.966 C4.697,16.803 5.310,19.364 8.616,23.028 C9.957,21.876 11.416,20.739 12.995,19.634 C14.512,18.576 16.060,17.594 17.601,16.704 C16.739,16.402 15.886,16.123 15.058,15.893 ZM28.813,14.093 C27.164,7.439 24.679,4.959 23.500,4.959 C22.464,4.959 20.420,6.877 18.820,11.857 C20.694,12.492 22.622,13.264 24.582,14.186 C26.184,14.937 27.757,15.755 29.259,16.618 C29.282,16.632 29.307,16.647 29.329,16.661 C29.169,15.793 29.016,14.916 28.813,14.093 ZM30.083,23.017 C28.967,22.272 27.844,21.558 26.725,20.914 C25.685,20.318 24.599,19.753 23.500,19.209 C22.402,19.753 21.315,20.318 20.276,20.914 C19.156,21.558 18.033,22.272 16.917,23.018 C16.850,24.169 16.783,25.323 16.783,26.499 C16.783,27.676 16.850,28.831 16.917,29.981 C18.033,30.725 19.156,31.440 20.276,32.082 C21.317,32.682 22.402,33.247 23.500,33.789 C24.599,33.247 25.685,32.682 26.725,32.083 C27.844,31.440 28.967,30.725 30.083,29.981 C30.151,28.830 30.218,27.676 30.218,26.499 C30.218,25.323 30.151,24.169 30.083,23.017 ZM29.402,36.294 C30.264,36.597 31.114,36.875 31.942,37.105 C38.112,38.817 41.271,37.967 41.819,37.034 C42.304,36.194 41.689,33.633 38.386,29.970 C37.044,31.121 35.585,32.259 34.006,33.365 C32.490,34.423 30.941,35.405 29.402,36.294 ZM41.815,15.964 C41.340,15.151 38.886,14.409 34.199,15.353 C34.580,17.320 34.893,19.346 35.060,21.474 C35.178,22.975 35.237,24.524 35.247,26.079 C35.767,25.627 36.272,25.173 36.744,24.719 C41.493,20.156 42.374,16.928 41.815,15.964 ZM23.500,29.813 C21.646,29.813 20.141,28.328 20.141,26.499 C20.141,24.668 21.646,23.184 23.500,23.184 C25.354,23.184 26.859,24.668 26.859,26.499 C26.859,28.328 25.354,29.813 23.500,29.813 Z"/>
</svg>
